src/components/Icon/svg-icon/main/charts-bars-2.svg

<svg xmlns="http://www.w3.org/2000/svg" width="24" height="24"><path fill="#677078" d="M9 17H7v-7h2v7zm4 0h-2V7h2v10zm4 0h-2v-4h2v4zm2.5 2.1h-15V5h15v14.1zm0-16.1h-15c-1.1 0-2 .9-2 2v14c0 1.1.9 2 2 2h15c1.1 0 2-.9 2-2V5c0-1.1-.9-2-2-2z"/></svg>

<svg xmlns="http://www.w3.org/2000/svg" width="24" height="24" viewBox="0 0 24 24">
  <path fill="#677078" d="M9,17 L7,17 L7,10 L9,10 L9,17 Z M13,17 L11,17 L11,7 L13,7 L13,17 Z M17,17 L15,17 L15,13 L17,13 L17,17 Z M19.5,19.1 L4.5,19.1 L4.5,5 L19.5,5 L19.5,19.1 Z M19.5,3 L4.5,3 C3.4,3 2.5,3.9 2.5,5 L2.5,19 C2.5,20.1 3.4,21 4.5,21 L19.5,21 C20.6,21 21.5,20.1 21.5,19 L21.5,5 C21.5,3.9 20.6,3 19.5,3 Z"/>
</svg>
